dist/img/sprites/handshake.svg

<svg width="68" height="68" viewBox="0 0 68 68" fill="none" xmlns="http://www.w3.org/2000/svg">
<path d="M67.7897 33.6885C65.1882 26.8805 62.5649 20.0818 59.925 13.2885C59.2934 11.6625 57.6677 10.9554 56.0494 11.5465C54.7423 12.0253 53.4462 12.5335 52.1592 13.0639C50.5592 13.7231 49.8617 15.3234 50.431 16.966C50.6086 17.4797 50.8081 17.9861 50.993 18.4833C51.0644 18.6767 49.047 19.5864 48.8072 19.6711C47.7289 20.0523 46.6689 19.9252 45.62 19.5109C44.4849 19.0634 43.3902 18.4907 42.2222 18.1298C40.9663 17.7394 39.445 17.4134 38.1324 17.6547C36.8198 17.8959 35.5841 18.5441 34.2971 18.9732C33.9804 19.0781 33.5886 19.1555 33.2829 19.0671C32.5012 18.8406 31.7982 18.4171 31.0348 18.1445C28.9625 17.4042 26.9176 18.4263 24.891 18.7946C23.7944 18.9934 22.729 19.1997 21.6086 19.0432C20.1971 18.8461 19.0511 17.9162 17.722 17.4761C17.9673 16.907 18.1724 16.4504 18.3609 15.9863C19.031 14.34 18.4103 12.6937 16.814 11.9498C15.5728 11.3715 14.3206 10.8136 13.0611 10.2795C11.4299 9.58715 9.76947 10.2096 9.05367 11.8301C6.11541 18.4778 3.19179 25.1274 0.286479 31.7862C-0.427492 33.4233 0.229727 35.0475 1.84989 35.8043C3.0911 36.3844 4.34147 36.9424 5.60281 37.4746C7.22298 38.1596 8.8523 37.5059 9.6102 35.9038C9.74384 35.6202 9.87565 35.3348 10.0294 35.0051C10.7306 35.3127 11.4061 35.5392 12.0066 35.8964C12.3617 36.1082 12.7444 36.4802 12.8579 36.8595C13.3558 38.515 13.8647 40.2073 12.5064 41.7413C12.4771 41.7744 12.4697 41.8241 12.4496 41.8665C11.2816 44.4041 12.748 47.2749 15.4794 47.7924C15.7412 47.8421 16.003 47.8881 16.3014 47.9434C16.1568 49.6339 16.7023 51.0113 18.079 51.9707C19.452 52.9264 20.9294 52.9338 22.4177 52.2506C23.712 54.3812 25.5116 55.0699 27.8787 54.3444C28.5396 55.8176 29.6526 56.7383 31.2399 56.9574C32.8655 57.1821 34.1671 56.5044 35.2454 55.232C36.6642 56.2411 38.158 56.7696 39.8295 56.0459C41.4844 55.3277 42.257 53.9816 42.3888 52.1714C43.6904 52.3243 44.8694 52.1033 45.8726 51.2433C46.8905 50.3686 47.3042 49.2177 47.3335 47.9194C50.6873 47.7869 51.9139 46.2916 51.8242 42.4963C53.8416 41.7413 54.8979 40.3104 54.8228 38.0914C54.8192 37.9589 54.9638 37.7526 55.0901 37.6955C56.0055 37.2867 56.9336 36.9074 57.9167 36.4949C58.0412 36.7858 58.1327 36.9939 58.2188 37.2039C58.9529 39.0011 60.5438 39.712 62.3378 39.0288C63.5955 38.55 64.8551 38.073 66.0963 37.5519C67.656 36.8963 68.3938 35.274 67.7897 33.6885ZM7.68248 34.8155H7.68065C7.54152 35.1303 7.22847 35.3679 7.01977 35.6128C6.65912 35.4931 6.46141 35.4452 6.27651 35.3624C5.1488 34.867 4.02109 34.3717 2.89888 33.8597C2.1904 33.5375 2.05493 33.1968 2.36249 32.4952C5.22569 25.9727 8.09256 19.4501 10.9649 12.9313C11.2963 12.1781 11.6221 12.0566 12.3709 12.3825C13.5004 12.876 14.6263 13.3732 15.7485 13.8852C16.4497 14.2037 16.5961 14.5628 16.2922 15.2552C13.429 21.7796 10.5658 28.3021 7.68248 34.8155ZM17.7751 44.6858H17.7733C17.2826 45.5402 16.6089 45.8367 15.7266 45.5936C14.8332 45.3469 14.2583 44.6011 14.1778 43.6509C14.3023 43.2881 14.3883 42.9051 14.5604 42.5681C15.1224 41.4669 15.7082 40.3767 16.2996 39.2921C16.9257 38.143 18.0955 37.7655 19.1243 38.364C20.1239 38.9441 20.3857 40.1171 19.7559 41.2293C19.1005 42.3839 18.436 43.5349 17.7751 44.6858ZM22.1431 49.5326C21.691 50.3668 20.7628 50.6853 19.9079 50.4312C19.0218 50.1661 18.4671 49.4129 18.3975 48.4498C18.5568 48.0539 18.6758 47.634 18.879 47.2639C19.7522 45.682 20.6493 44.1131 21.5408 42.5423C22.0205 41.6971 22.9962 41.4209 23.9006 41.8628C24.7812 42.2937 25.2846 43.4097 24.88 44.2291C23.9995 46.0135 23.0914 47.785 22.1431 49.5326ZM27.9666 51.3649C27.5766 52.1143 26.9359 52.4661 26.1212 52.4219C25.3047 52.3777 24.6548 51.9597 24.4187 51.1586C24.3034 50.7645 24.3235 50.2342 24.4956 49.8659C25.1748 48.4148 25.9363 47.0042 26.6704 45.5808C27.1208 44.7079 27.8842 44.3543 28.8233 44.5808C29.6783 44.7871 30.3025 45.5955 30.3007 46.6635C30.2714 46.7501 30.2202 46.9969 30.1085 47.216C29.4018 48.6026 28.6824 49.9819 27.9666 51.3649ZM35.3791 50.2452C34.7713 51.4293 34.1598 52.6079 33.5099 53.7661C33.0687 54.5488 32.2156 54.9189 31.4211 54.7569C30.5973 54.5893 29.9694 53.9853 29.8558 53.1419C29.8137 52.8288 29.8943 52.4569 30.0353 52.1696C30.6504 50.9155 31.3058 49.6817 31.9483 48.4406C32.4023 47.564 33.2042 47.1828 34.0921 47.4167C35.0001 47.6561 35.6189 48.4664 35.6006 49.5344C35.5566 49.6817 35.5127 49.9856 35.3791 50.2452ZM39.8679 53.2616C39.3388 54.116 38.2697 54.4033 37.347 53.9264C37.0047 53.7496 36.677 53.5396 36.3182 53.3316C36.8509 52.1806 37.3727 51.0518 37.9347 49.8383C38.3796 50.1053 38.8885 50.3668 39.348 50.6964C40.1974 51.3022 40.4025 52.4016 39.8679 53.2616ZM52.6077 38.8483H52.604C52.4411 39.6641 51.7967 40.3307 50.9583 40.3602C50.4878 40.3767 49.9605 40.2257 49.5413 39.9955C47.3976 38.8207 45.2831 37.5961 43.1558 36.3899C42.9966 36.2997 42.841 36.2021 42.6762 36.1266C42.0776 35.8559 41.4698 36.0364 41.1952 36.5575C40.9169 37.0823 41.078 37.7139 41.6327 38.0454C42.6323 38.6439 43.652 39.2074 44.6643 39.7838C46.0337 40.5627 47.414 41.3251 48.7724 42.1243C49.5102 42.5589 49.8635 43.3636 49.7097 44.1094C49.5395 44.9326 49.0415 45.5255 48.225 45.6194C47.7234 45.6765 47.1248 45.5329 46.6744 45.2861C43.771 43.6914 40.8986 42.0433 38.0152 40.4136C37.8157 40.3012 37.6253 40.1613 37.4111 40.0931C36.8491 39.909 36.3566 40.0324 36.0601 40.5775C35.7672 41.1152 35.8916 41.6013 36.364 41.9825C36.5232 42.1096 36.71 42.2035 36.8875 42.3048C39.1301 43.5809 41.3764 44.8552 43.619 46.1332C43.8954 46.2916 44.1792 46.4499 44.4245 46.6525C45.1513 47.2547 45.3179 48.2748 44.8474 49.0796C44.3806 49.8769 43.3444 50.3152 42.5371 49.8604C40.4354 48.6744 38.3576 47.4425 36.3347 46.1258C35.2472 45.4187 34.1653 44.9823 32.8692 45.2125C32.7154 45.2401 32.558 45.2603 32.3804 45.288C31.379 42.9143 29.627 41.9567 27.0787 42.4373C26.2256 40.2902 24.6384 39.2755 22.2933 39.4836C21.9436 37.8392 21.0539 36.6496 19.4758 36.1063C17.927 35.5741 16.5174 35.9516 15.4007 36.865C14.8478 35.9995 14.4487 34.9886 13.7256 34.3532C12.9842 33.7014 11.9242 33.4159 10.9228 32.9316C12.8817 28.4697 14.8387 24.0133 16.8323 19.4722C17.4511 19.7595 18.068 19.9842 18.6264 20.3138C20.6145 21.485 22.685 21.4408 24.8544 20.9528C26.2915 20.6287 27.7689 20.4353 29.2389 20.3414C29.973 20.2935 30.7291 20.5974 31.5859 20.7631C29.0577 23.4204 26.4562 25.6835 23.4393 27.398C21.4731 28.5139 21.7404 29.5359 22.956 30.8379C25.2224 33.2649 27.9519 33.9647 31.0659 33.0568C32.8564 32.5357 34.5772 31.777 36.3438 31.1656C37.1805 30.8765 38.0427 30.5579 38.9123 30.4917C39.672 30.4327 40.5636 30.5156 41.2153 30.871C44.7009 32.7788 48.1335 34.786 51.577 36.7711C52.3844 37.237 52.767 38.062 52.6077 38.8483ZM54.0796 35.6994H54.0833C53.9606 35.7454 53.7482 35.657 53.6164 35.5705C53.1203 35.2482 52.6608 34.8633 52.15 34.5669C49.0836 32.7935 45.9806 31.0828 42.9453 29.2615C41.1091 28.1603 39.2198 27.9117 37.2317 28.5673C35.3699 29.1805 33.5484 29.9171 31.7067 30.5874C30.4948 31.0275 29.2535 31.3424 27.9538 31.1877C26.6283 31.0294 25.5501 30.3775 24.6127 29.3555C24.7574 29.2394 24.8819 29.1197 25.0228 29.0314C27.5565 27.4495 29.8687 25.5952 31.9923 23.4867C32.7667 22.7169 33.6399 22.03 34.5369 21.4058C37.034 19.6656 39.7068 19.5551 42.4895 20.6581C43.5915 21.0946 44.7028 21.5181 45.8305 21.8827C47.3792 22.3836 48.8877 22.2842 50.3138 21.4224C50.7788 21.1424 51.2695 20.9049 51.8187 20.6121C53.5963 25.2232 55.3556 29.79 57.1405 34.4214C56.0897 34.8652 55.0901 35.2979 54.0796 35.6994ZM64.9118 35.6515H64.9136C63.8317 36.0787 62.7498 36.5041 61.6623 36.9203C60.8605 37.2278 60.5236 37.0878 60.2216 36.3089C57.6659 29.6832 55.1139 23.0557 52.5638 16.4264C52.2709 15.6622 52.4155 15.3363 53.1697 15.0361C54.3139 14.5794 55.4636 14.1374 56.6114 13.6918C56.7799 13.6274 56.9556 13.5832 57.3108 13.4727C57.5286 13.7618 57.8526 14.0435 57.9936 14.4008C59.1213 17.2551 60.2142 20.1241 61.32 22.9895C62.7461 26.6871 64.174 30.3848 65.6001 34.0825C65.9571 35.0088 65.8326 35.2887 64.9118 35.6515Z" fill="#4B8125"/>
<path d="M14.1744 15.7305C14.1854 16.4708 13.6344 17.0361 12.8966 17.038C12.1863 17.038 11.6389 16.515 11.6133 15.806C11.5858 15.0731 12.1369 14.471 12.8563 14.4489C13.5758 14.4268 14.1634 14.9995 14.1744 15.7305Z" fill="#4B8125"/>
<path d="M57.1927 17.0454C57.1891 17.7747 56.6032 18.3584 55.8893 18.3418C55.2082 18.3271 54.6371 17.7507 54.6224 17.062C54.6059 16.3365 55.1771 15.7527 55.9057 15.749C56.6417 15.7454 57.1982 16.3033 57.1945 17.0454H57.1927Z" fill="#4B8125"/>
</svg>

<svg width="68" height="68" viewBox="0 0 68 68" fill="none" xmlns="http://www.w3.org/2000/svg"><path d="M67.79 33.688a3875.2 3875.2 0 00-7.865-20.4c-.632-1.626-2.257-2.333-3.876-1.742-1.307.48-2.603.988-3.89 1.518-1.6.66-2.297 2.26-1.728 3.902.178.514.377 1.02.562 1.517.071.194-1.946 1.103-2.186 1.188-1.078.381-2.138.254-3.187-.16-1.135-.448-2.23-1.02-3.398-1.381-1.256-.39-2.777-.717-4.09-.475-1.312.24-2.548.89-3.835 1.318-.317.105-.708.183-1.014.094-.782-.226-1.485-.65-2.248-.922-2.073-.74-4.117.281-6.144.65-1.097.198-2.162.405-3.282.248-1.412-.197-2.558-1.127-3.887-1.567.245-.569.45-1.026.639-1.49.67-1.646.05-3.292-1.547-4.036a117.626 117.626 0 00-3.753-1.67c-1.631-.693-3.292-.07-4.007 1.55A4573.09 4573.09 0 00.286 31.786c-.713 1.637-.056 3.261 1.564 4.018a108.29 108.29 0 003.753 1.67c1.62.686 3.25.032 4.007-1.57.134-.284.266-.57.42-.899.7.308 1.376.534 1.977.891.355.212.737.584.85.963.499 1.656 1.008 3.348-.35 4.882-.03.033-.037.083-.057.126-1.168 2.537.298 5.408 3.03 5.925.261.05.523.096.821.151-.144 1.69.401 3.068 1.778 4.028 1.373.955 2.85.963 4.339.28 1.294 2.13 3.094 2.819 5.46 2.093.662 1.474 1.775 2.394 3.362 2.613 1.625.225 2.927-.453 4.005-1.725 1.42 1.01 2.913 1.538 4.585.814 1.654-.718 2.427-2.064 2.559-3.875 1.301.153 2.48-.068 3.484-.928 1.018-.874 1.431-2.025 1.46-3.324 3.354-.132 4.58-1.627 4.491-5.423 2.018-.755 3.074-2.186 2.999-4.405-.004-.132.14-.338.267-.395.915-.41 1.844-.789 2.827-1.201.124.29.216.499.302.709.734 1.797 2.325 2.508 4.119 1.825 1.258-.479 2.517-.956 3.758-1.477 1.56-.656 2.298-2.278 1.694-3.864zM7.682 34.816h-.001c-.14.315-.453.553-.661.798-.36-.12-.559-.168-.743-.25-1.128-.496-2.256-.991-3.378-1.503-.709-.322-.844-.663-.537-1.365 2.864-6.522 5.73-13.045 8.603-19.564.331-.753.657-.874 1.406-.548 1.13.493 2.255.99 3.377 1.502.702.319.848.678.544 1.37a6663.782 6663.782 0 01-8.61 19.56zm10.093 9.87h-.002c-.49.855-1.164 1.152-2.046.909-.894-.247-1.469-.993-1.55-1.943.125-.363.211-.746.383-1.083a135.872 135.872 0 011.74-3.276c.626-1.149 1.796-1.526 2.824-.928 1 .58 1.262 1.753.632 2.865-.655 1.155-1.32 2.306-1.98 3.457zm4.368 4.848c-.452.834-1.38 1.152-2.235.898-.886-.265-1.44-1.018-1.51-1.981.159-.396.278-.816.481-1.186.873-1.582 1.77-3.15 2.662-4.722.48-.845 1.455-1.121 2.36-.68.88.432 1.384 1.548.979 2.367a153.951 153.951 0 01-2.737 5.304zm5.824 1.832c-.39.75-1.031 1.101-1.846 1.057-.816-.044-1.466-.462-1.702-1.263-.116-.395-.096-.925.077-1.293.679-1.451 1.44-2.862 2.174-4.285.45-.873 1.214-1.227 2.153-1 .855.206 1.48 1.014 1.478 2.082-.03.087-.08.334-.192.553-.707 1.387-1.427 2.766-2.142 4.149zm7.412-1.12a107.387 107.387 0 01-1.87 3.521c-.44.783-1.293 1.153-2.088.99-.824-.167-1.452-.77-1.565-1.614-.042-.313.038-.685.18-.972.614-1.255 1.27-2.488 1.912-3.73.454-.876 1.256-1.257 2.144-1.023.908.24 1.527 1.05 1.509 2.117-.044.148-.088.452-.222.711zm4.489 3.017c-.53.854-1.598 1.141-2.521.664-.342-.176-.67-.386-1.029-.594l1.617-3.494c.445.267.953.529 1.413.858a1.887 1.887 0 01.52 2.566zm12.74-14.414h-.004c-.163.816-.807 1.483-1.646 1.512-.47.017-.997-.134-1.417-.364-2.143-1.175-4.258-2.4-6.385-3.606-.16-.09-.315-.188-.48-.263-.598-.271-1.206-.09-1.48.43-.28.525-.118 1.157.437 1.488 1 .599 2.019 1.162 3.031 1.739 1.37.779 2.75 1.541 4.108 2.34.738.435 1.092 1.24.938 1.985-.17.824-.669 1.416-1.485 1.51-.502.057-1.1-.086-1.55-.333-2.904-1.595-5.776-3.243-8.66-4.872-.2-.113-.39-.253-.604-.32-.562-.185-1.054-.062-1.35.483-.294.538-.17 1.024.303 1.406.16.127.346.22.524.322 2.242 1.276 4.488 2.55 6.731 3.828.276.159.56.317.806.52.726.602.893 1.622.422 2.427-.466.797-1.503 1.235-2.31.78a114.514 114.514 0 01-6.202-3.734c-1.088-.707-2.17-1.144-3.466-.913-.154.027-.311.047-.489.075-1.001-2.374-2.753-3.331-5.301-2.85-.853-2.148-2.44-3.163-4.786-2.954-.35-1.645-1.24-2.834-2.817-3.378-1.549-.532-2.959-.154-4.075.759-.553-.866-.952-1.876-1.675-2.512-.742-.652-1.802-.937-2.803-1.421l5.91-13.46c.618.287 1.235.512 1.793.842 1.988 1.171 4.059 1.127 6.228.639a28.136 28.136 0 014.385-.612c.734-.047 1.49.256 2.347.422-2.528 2.657-5.13 4.92-8.147 6.635-1.966 1.116-1.699 2.138-.483 3.44 2.266 2.427 4.996 3.127 8.11 2.219 1.79-.521 3.511-1.28 5.278-1.891.837-.29 1.699-.608 2.568-.674.76-.06 1.652.024 2.303.379 3.486 1.908 6.918 3.915 10.362 5.9.807.466 1.19 1.291 1.03 2.077zM54.08 35.7h.003c-.122.046-.335-.042-.467-.128-.496-.323-.955-.708-1.466-1.004-3.066-1.773-6.17-3.484-9.205-5.305-1.836-1.102-3.725-1.35-5.713-.695-1.862.613-3.684 1.35-5.525 2.02-1.212.44-2.454.755-3.753.6-1.326-.158-2.404-.81-3.341-1.832.144-.116.269-.235.41-.324a39.74 39.74 0 006.97-5.544c.774-.77 1.647-1.457 2.544-2.081 2.497-1.74 5.17-1.85 7.953-.748 1.102.437 2.213.86 3.34 1.225 1.55.5 3.058.401 4.484-.46.465-.28.956-.518 1.505-.81L57.14 34.42c-1.051.444-2.05.877-3.061 1.278zm10.832-.047h.002a326.77 326.77 0 01-3.252 1.268c-.801.308-1.138.168-1.44-.611a23209.47 23209.47 0 01-7.658-19.883c-.293-.764-.148-1.09.606-1.39 1.144-.457 2.294-.899 3.441-1.344.169-.065.345-.109.7-.22.218.29.542.572.683.929 1.127 2.854 2.22 5.723 3.326 8.588l4.28 11.094c.357.926.233 1.206-.688 1.569z" fill="#4B8125"/><path d="M14.174 15.73c.011.74-.54 1.306-1.277 1.308-.71 0-1.258-.523-1.284-1.232-.027-.733.524-1.335 1.243-1.357.72-.022 1.307.55 1.318 1.281zm43.019 1.315c-.004.73-.59 1.313-1.304 1.297a1.318 1.318 0 01-1.267-1.28 1.278 1.278 0 011.284-1.313c.736-.004 1.292.554 1.288 1.296h-.001z" fill="#4B8125"/></svg>
